public/icon-video.svg

<svg width="362" height="279" viewBox="0 0 362 279" fill="none" xmlns="http://www.w3.org/2000/svg">
<g clip-path="url(#clip0_298_79)">
<path opacity="0.44" d="M341.679 69.3645L48.3223 0L2.25414 194.831L295.611 264.196L341.679 69.3645Z" fill="#0DBAB5" fill-opacity="0.25"/>
<path opacity="0.44" d="M359.447 83.6321L66.0908 14.2676L20.0227 209.099L313.379 278.463L359.447 83.6321Z" fill="#0DBAB5" fill-opacity="0.25"/>
<g filter="url(#filter0_d_298_79)">
<path d="M103.453 61.4564L101.964 67.7178L112.717 70.2741L114.205 64.0127L103.453 61.4564Z" fill="#F0F8FF"/>
<path d="M244.973 101.727L222.926 96.5145L224.412 90.2315L246.459 95.4445L244.973 101.727ZM200.894 91.242L178.847 86.029L180.332 79.746L202.379 84.9591L200.894 91.242ZM156.794 80.7518L134.747 75.5388L136.233 69.2559L158.28 74.4689L156.794 80.7518Z" fill="#F0F8FF"/>
<path d="M268.493 100.691L267.004 106.952L277.757 109.508L279.245 103.247L268.493 100.691Z" fill="#F0F8FF"/>
</g>
<g filter="url(#filter1_d_298_79)">
<path d="M79.5607 164.453L78.0721 170.714L88.8246 173.27L90.3132 167.009L79.5607 164.453Z" fill="#F0F8FF"/>
<path d="M177.022 194.236L154.976 189.023L156.461 182.74L178.508 187.953L177.022 194.236ZM132.923 183.746L110.876 178.533L112.362 172.25L134.409 177.463L132.923 183.746Z" fill="#F0F8FF"/>
</g>
<g filter="url(#filter2_d_298_79)">
<path d="M243.689 174.066C242.661 174.158 241.728 174.649 241.061 175.433C239.771 176.99 239.904 179.261 241.312 180.662C241.378 180.74 241.463 180.823 241.553 180.886C241.623 180.944 241.702 180.963 241.772 181.021C241.203 180.594 240.77 180.031 240.494 179.338C240.135 178.374 240.156 177.312 240.588 176.368C241.463 174.44 243.786 173.566 245.697 174.436C245.079 174.123 244.395 174.003 243.689 174.066ZM241.752 181.017C241.982 181.197 242.256 181.366 242.52 181.491C242.232 181.381 241.982 181.197 241.752 181.017Z" fill="#F0F8FF"/>
<path d="M247.743 176.594C247.538 176.044 247.166 175.579 246.735 175.184C248.148 176.565 248.301 178.84 247.011 180.398C246.339 181.202 245.406 181.693 244.378 181.784C243.993 181.819 243.597 181.809 243.22 181.72C245.006 182.142 246.874 181.244 247.653 179.545C248.066 178.596 248.102 177.558 247.743 176.594ZM246.14 174.688C246.379 174.828 246.545 175.014 246.735 175.184C246.65 175.101 246.585 175.023 246.515 174.965C246.395 174.853 246.27 174.76 246.14 174.688Z" fill="#F0F8FF"/>
<path d="M285.721 155.814C286.478 152.791 286.081 149.684 284.651 146.96C280.68 149.307 262.567 160.071 251.033 166.845C252.09 153.513 253.868 132.524 254.258 127.949C251.181 127.849 248.197 128.86 245.819 130.851C243.192 133.013 241.589 136.066 241.288 139.469C240.387 150.013 238.909 167.076 238.316 174.282C236.252 175.656 234.838 176.85 233.39 178.098C231.316 179.868 228.954 181.883 224.223 184.699L223.296 185.254L222.931 184.226C221.612 180.587 218.939 177.715 215.417 176.129C211.949 174.577 208.1 174.462 204.576 175.805C201.033 177.144 198.229 179.788 196.681 183.231C195.124 186.713 195.062 190.612 196.513 194.22C197.899 197.666 200.562 200.493 203.8 201.95C209.049 204.3 215.54 202.988 219.97 198.699C223.475 195.572 227.257 192.783 231.221 190.372C233.866 188.758 236.309 187.641 238.558 186.728C238.718 189.152 238.793 191.849 238.502 194.94C238.063 199.545 237.198 204.175 235.902 208.682C233.971 214.546 235.642 220.947 240.052 224.627C242.778 226.925 246.487 228.074 250.193 227.82C254.072 227.544 257.57 225.776 260 222.856C262.445 219.96 263.584 216.295 263.258 212.534C262.912 208.769 261.141 205.358 258.236 202.934C255.261 200.451 251.492 199.288 247.644 199.697L246.568 199.819L246.653 198.751C247.13 193.276 247.922 190.282 248.614 187.62C249.094 185.767 249.556 183.992 249.889 181.518C256.118 177.863 270.854 169.063 279.953 163.638C282.858 161.897 284.919 159.12 285.721 155.814ZM213.056 193.82C210.68 195.54 207.867 196.005 205.716 195.266C204.767 194.937 203.939 194.364 203.359 193.537C201.445 190.908 202.702 186.747 206.161 184.258C208.336 182.68 210.871 182.149 212.915 182.632C214.126 182.919 215.148 183.558 215.863 184.522C217.772 187.171 216.515 191.332 213.056 193.82ZM250.469 206.183L250.727 206.244C253.763 206.962 255.657 210.737 254.949 214.797C254.212 218.976 251.021 221.926 247.799 221.373C246.813 221.203 245.946 220.705 245.234 219.992C243.621 218.397 242.823 215.655 243.32 212.759C244.056 208.58 247.247 205.63 250.469 206.183ZM241.061 175.433C241.728 174.649 242.661 174.158 243.689 174.066C244.395 174.003 245.079 174.123 245.697 174.436C245.811 174.484 245.921 174.552 246.03 174.62C246.07 174.629 246.11 174.639 246.14 174.688C246.878 175.113 247.431 175.788 247.743 176.594C248.102 177.558 248.066 178.596 247.653 179.545C246.874 181.244 245.006 182.142 243.22 181.72C243.081 181.687 242.962 181.659 242.848 181.611C242.729 181.583 242.634 181.539 242.54 181.496C242.177 181.347 241.848 181.144 241.552 180.886C241.463 180.823 241.377 180.74 241.312 180.662C239.904 179.261 239.771 176.99 241.061 175.433Z" fill="#F0F8FF"/>
</g>
<g filter="url(#filter3_d_298_79)">
<path d="M179.791 200.96L71.6402 175.388C68.3263 174.604 66.2648 171.271 67.0475 167.961L69.85 156.108L184.013 183.103L185.494 176.839L71.45 149.873L88.7618 76.6581L285.298 123.129L283.152 132.207L289.304 133.662L295.64 106.865C297.243 100.086 293.029 93.272 286.242 91.6673L101.751 48.0441C94.984 46.4441 88.1645 50.6496 86.5617 57.4281L60.7767 166.478C59.1786 173.237 63.3924 180.051 70.1593 181.651L178.31 207.224L179.791 200.96ZM92.8325 58.9108C93.6198 55.5811 96.956 53.5237 100.27 54.3073L284.741 97.9258C288.075 98.714 290.137 102.048 289.349 105.377L286.641 116.833L90.1237 70.3668L92.8325 58.9108Z" fill="#F0F8FF"/>
</g>
<g filter="url(#filter4_d_298_79)">
<path d="M170.658 114.104L194.773 136.8C197.017 138.921 196.131 142.667 193.18 143.539L161.454 153.031C158.498 153.922 155.689 151.27 156.396 148.277L164.007 116.089C164.715 113.096 168.414 111.983 170.658 114.104Z" fill="#F0F8FF"/>
</g>
</g>
<defs>
<filter id="filter0_d_298_79" x="101.964" y="61.4561" width="181.281" height="52.0527" filterUnits="userSpaceOnUse" color-interpolation-filters="sRGB">
<feFlood flood-opacity="0" result="BackgroundImageFix"/>
<feColorMatrix in="SourceAlpha" type="matrix" values="0 0 0 0 0 0 0 0 0 0 0 0 0 0 0 0 0 0 127 0" result="hardAlpha"/>
<feOffset dx="2" dy="2"/>
<feGaussianBlur stdDeviation="1"/>
<feComposite in2="hardAlpha" operator="out"/>
<feColorMatrix type="matrix" values="0 0 0 0 0 0 0 0 0 0.364706 0 0 0 0 0.352941 0 0 0 0.1 0"/>
<feBlend mode="normal" in2="BackgroundImageFix" result="effect1_dropShadow_298_79"/>
<feBlend mode="normal" in="SourceGraphic" in2="effect1_dropShadow_298_79" result="shape"/>
</filter>
<filter id="filter1_d_298_79" x="78.0721" y="164.452" width="104.436" height="33.7842" filterUnits="userSpaceOnUse" color-interpolation-filters="sRGB">
<feFlood flood-opacity="0" result="BackgroundImageFix"/>
<feColorMatrix in="SourceAlpha" type="matrix" values="0 0 0 0 0 0 0 0 0 0 0 0 0 0 0 0 0 0 127 0" result="hardAlpha"/>
<feOffset dx="2" dy="2"/>
<feGaussianBlur stdDeviation="1"/>
<feComposite in2="hardAlpha" operator="out"/>
<feColorMatrix type="matrix" values="0 0 0 0 0 0 0 0 0 0.364706 0 0 0 0 0.352941 0 0 0 0.1 0"/>
<feBlend mode="normal" in2="BackgroundImageFix" result="effect1_dropShadow_298_79"/>
<feBlend mode="normal" in="SourceGraphic" in2="effect1_dropShadow_298_79" result="shape"/>
</filter>
<filter id="filter2_d_298_79" x="195.467" y="127.942" width="94.6304" height="103.912" filterUnits="userSpaceOnUse" color-interpolation-filters="sRGB">
<feFlood flood-opacity="0" result="BackgroundImageFix"/>
<feColorMatrix in="SourceAlpha" type="matrix" values="0 0 0 0 0 0 0 0 0 0 0 0 0 0 0 0 0 0 127 0" result="hardAlpha"/>
<feOffset dx="2" dy="2"/>
<feGaussianBlur stdDeviation="1"/>
<feComposite in2="hardAlpha" operator="out"/>
<feColorMatrix type="matrix" values="0 0 0 0 0 0 0 0 0 0.364706 0 0 0 0 0.352941 0 0 0 0.1 0"/>
<feBlend mode="normal" in2="BackgroundImageFix" result="effect1_dropShadow_298_79"/>
<feBlend mode="normal" in="SourceGraphic" in2="effect1_dropShadow_298_79" result="shape"/>
</filter>
<filter id="filter3_d_298_79" x="60.4381" y="47.7041" width="239.542" height="163.52" filterUnits="userSpaceOnUse" color-interpolation-filters="sRGB">
<feFlood flood-opacity="0" result="BackgroundImageFix"/>
<feColorMatrix in="SourceAlpha" type="matrix" values="0 0 0 0 0 0 0 0 0 0 0 0 0 0 0 0 0 0 127 0" result="hardAlpha"/>
<feOffset dx="2" dy="2"/>
<feGaussianBlur stdDeviation="1"/>
<feComposite in2="hardAlpha" operator="out"/>
<feColorMatrix type="matrix" values="0 0 0 0 0 0 0 0 0 0.364706 0 0 0 0 0.352941 0 0 0 0.1 0"/>
<feBlend mode="normal" in2="BackgroundImageFix" result="effect1_dropShadow_298_79"/>
<feBlend mode="normal" in="SourceGraphic" in2="effect1_dropShadow_298_79" result="shape"/>
</filter>
<filter id="filter4_d_298_79" x="156.286" y="113.008" width="43.7479" height="44.1982" filterUnits="userSpaceOnUse" color-interpolation-filters="sRGB">
<feFlood flood-opacity="0" result="BackgroundImageFix"/>
<feColorMatrix in="SourceAlpha" type="matrix" values="0 0 0 0 0 0 0 0 0 0 0 0 0 0 0 0 0 0 127 0" result="hardAlpha"/>
<feOffset dx="2" dy="2"/>
<feGaussianBlur stdDeviation="1"/>
<feComposite in2="hardAlpha" operator="out"/>
<feColorMatrix type="matrix" values="0 0 0 0 0 0 0 0 0 0.364706 0 0 0 0 0.352941 0 0 0 0.1 0"/>
<feBlend mode="normal" in2="BackgroundImageFix" result="effect1_dropShadow_298_79"/>
<feBlend mode="normal" in="SourceGraphic" in2="effect1_dropShadow_298_79" result="shape"/>
</filter>
<clipPath id="clip0_298_79">
<rect width="322" height="210" fill="white" transform="translate(48.3223) rotate(13.3033)"/>
</clipPath>
</defs>
</svg>

<?xml version="1.0" encoding="UTF-8"?>
<svg id="Vrstva_2" data-name="Vrstva 2" xmlns="http://www.w3.org/2000/svg" xmlns:xlink="http://www.w3.org/1999/xlink" viewBox="0 0 361.68 278.46">
  <defs>
    <style>
      .cls-1 {
        fill: none;
      }

      .cls-2 {
        fill: rgba(13, 186, 181, .15);
        isolation: isolate;
        opacity: .44;
      }

      .cls-3 {
        fill: #f0f8ff;
      }

      .cls-4 {
        clip-path: url(#clippath);
      }
    </style>
    <clipPath id="clippath">
      <rect class="cls-1" x="75.84" y="-21.77" width="210" height="322" transform="translate(3.73 283.18) rotate(-76.7)"/>
    </clipPath>
  </defs>
  <g id="Vrstva_1-2" data-name="Vrstva 1">
    <g class="cls-4">
      <g>
        <path class="cls-2" d="M341.68,69.36L48.32,0,2.25,194.83l293.36,69.37,46.07-194.83Z"/>
        <path class="cls-2" d="M359.45,83.63L66.09,14.27,20.02,209.1l293.36,69.36,46.07-194.83Z"/>
        <g>
          <path class="cls-3" d="M103.45,61.46l-1.49,6.26,10.75,2.56,1.49-6.26-10.75-2.56Z"/>
          <path class="cls-3" d="M244.97,101.73l-22.05-5.21,1.49-6.28,22.05,5.21-1.49,6.28ZM200.89,91.24l-22.05-5.21,1.49-6.28,22.05,5.21-1.49,6.28ZM156.79,80.75l-22.05-5.21,1.49-6.28,22.05,5.21-1.49,6.28Z"/>
          <path class="cls-3" d="M268.49,100.69l-1.49,6.26,10.75,2.56,1.49-6.26-10.75-2.56Z"/>
        </g>
        <g>
          <path class="cls-3" d="M79.56,164.45l-1.49,6.26,10.75,2.56,1.49-6.26-10.75-2.56Z"/>
          <path class="cls-3" d="M177.02,194.24l-22.05-5.21,1.49-6.28,22.05,5.21-1.49,6.28ZM132.92,183.75l-22.05-5.21,1.49-6.28,22.05,5.21-1.49,6.28Z"/>
        </g>
        <g>
          <path class="cls-3" d="M243.69,174.07c-1.03.09-1.96.58-2.63,1.37-1.29,1.56-1.16,3.83.25,5.23.07.08.15.16.24.22.07.06.15.08.22.13-.57-.43-1-.99-1.28-1.68-.36-.96-.34-2.03.09-2.97.88-1.93,3.2-2.8,5.11-1.93-.62-.31-1.3-.43-2.01-.37ZM241.75,181.02c.23.18.5.35.77.47-.29-.11-.54-.29-.77-.47Z"/>
          <path class="cls-3" d="M247.74,176.59c-.21-.55-.58-1.01-1.01-1.41,1.41,1.38,1.57,3.66.28,5.21-.67.8-1.6,1.29-2.63,1.39-.39.04-.78.03-1.16-.06,1.79.42,3.65-.48,4.43-2.18.41-.95.45-1.99.09-2.95ZM246.14,174.69c.24.14.4.33.6.5-.09-.08-.15-.16-.22-.22-.12-.11-.24-.21-.38-.28Z"/>
          <path class="cls-3" d="M285.72,155.81c.76-3.02.36-6.13-1.07-8.85-3.97,2.35-22.08,13.11-33.62,19.88,1.06-13.33,2.83-34.32,3.22-38.9-3.08-.1-6.06.91-8.44,2.9-2.63,2.16-4.23,5.21-4.53,8.62-.9,10.54-2.38,27.61-2.97,34.81-2.06,1.37-3.48,2.57-4.93,3.82-2.07,1.77-4.44,3.78-9.17,6.6l-.93.55-.37-1.03c-1.32-3.64-3.99-6.51-7.51-8.1-3.47-1.55-7.32-1.67-10.84-.32-3.54,1.34-6.35,3.98-7.9,7.43-1.56,3.48-1.62,7.38-.17,10.99,1.39,3.45,4.05,6.27,7.29,7.73,5.25,2.35,11.74,1.04,16.17-3.25,3.51-3.13,7.29-5.92,11.25-8.33,2.65-1.61,5.09-2.73,7.34-3.64.16,2.42.24,5.12-.06,8.21-.44,4.6-1.3,9.24-2.6,13.74-1.93,5.86-.26,12.26,4.15,15.94,2.73,2.3,6.43,3.45,10.14,3.19,3.88-.28,7.38-2.04,9.81-4.96,2.45-2.9,3.58-6.56,3.26-10.32-.35-3.76-2.12-7.18-5.02-9.6-2.97-2.48-6.74-3.65-10.59-3.24l-1.08.12.09-1.07c.48-5.48,1.27-8.47,1.96-11.13.48-1.85.94-3.63,1.28-6.1,6.23-3.65,20.96-12.46,30.06-17.88,2.9-1.74,4.97-4.52,5.77-7.82ZM213.06,193.82c-2.38,1.72-5.19,2.18-7.34,1.45-.95-.33-1.78-.9-2.36-1.73-1.91-2.63-.66-6.79,2.8-9.28,2.18-1.58,4.71-2.11,6.75-1.63,1.21.29,2.23.93,2.95,1.89,1.91,2.65.65,6.81-2.81,9.3ZM250.47,206.18l.26.06c3.04.72,4.93,4.49,4.22,8.55-.74,4.18-3.93,7.13-7.15,6.58-.99-.17-1.85-.67-2.57-1.38-1.61-1.6-2.41-4.34-1.91-7.23.74-4.18,3.93-7.13,7.15-6.58ZM241.06,175.43c.67-.78,1.6-1.27,2.63-1.37.71-.06,1.39.06,2.01.37.11.05.22.12.33.18.04,0,.08.02.11.07.74.43,1.29,1.1,1.6,1.91.36.96.32,2-.09,2.95-.78,1.7-2.65,2.6-4.43,2.18-.14-.03-.26-.06-.37-.11-.12-.03-.21-.07-.31-.11-.36-.15-.69-.35-.99-.61-.09-.06-.18-.15-.24-.22-1.41-1.4-1.54-3.67-.25-5.23Z"/>
        </g>
        <path class="cls-3" d="M179.79,200.96l-108.15-25.57c-3.31-.78-5.38-4.12-4.59-7.43l2.8-11.85,114.16,26.99,1.48-6.26-114.04-26.97,17.31-73.21,196.54,46.47-2.15,9.08,6.15,1.46,6.34-26.8c1.6-6.78-2.61-13.59-9.4-15.2L101.75,48.04c-6.77-1.6-13.59,2.61-15.19,9.38l-25.78,109.05c-1.6,6.76,2.62,13.57,9.38,15.17l108.15,25.57,1.48-6.26ZM92.83,58.91c.79-3.33,4.12-5.39,7.44-4.6l184.47,43.62c3.33.79,5.4,4.12,4.61,7.45l-2.71,11.46-196.52-46.47,2.71-11.46Z"/>
        <path class="cls-3" d="M170.66,114.1l24.11,22.7c2.24,2.12,1.36,5.87-1.59,6.74l-31.73,9.49c-2.96.89-5.76-1.76-5.06-4.75l7.61-32.19c.71-2.99,4.41-4.11,6.65-1.99Z"/>
      </g>
    </g>
  </g>
</svg>
